static/assets/images/networks/avalanche-mono.svg

<svg width="289" height="256" viewBox="0 0 289 256" fill="none" xmlns="http://www.w3.org/2000/svg">
<path d="M72.5251 256H23.9353C13.7251 256 8.68173 256 5.60661 254.037C2.28513 251.887 0.255495 248.327 0.00945928 244.397C-0.175234 240.776 2.34681 236.355 7.39021 227.514L127.364 16.4375C132.47 7.4743 135.053 2.99268 138.312 1.3352C141.818 -0.445067 146.001 -0.445067 149.507 1.3352C152.766 2.99268 155.35 7.4743 160.455 16.4375L185.245 59.6308C190.758 69.2466 193.554 74.1229 194.775 79.2407C196.128 84.8274 196.128 90.721 194.775 96.3077C193.545 101.464 190.777 106.376 185.18 116.137L122.161 227.33L121.998 227.615L121.994 227.621C116.446 237.312 113.634 242.224 109.737 245.931C105.493 249.984 100.387 252.929 94.7903 254.589C89.6852 256 83.9654 256 72.5251 256Z" fill="black"/>
<path d="M195.23 256H264.854C275.125 256 280.293 256 283.37 253.977C286.69 251.827 288.781 248.203 288.967 244.277C289.144 240.773 286.677 236.524 281.844 228.198L281.843 228.197C281.699 227.951 281.554 227.702 281.407 227.448L281.34 227.331L246.465 167.782L246.068 167.111L246.061 167.099C241.165 158.836 238.692 154.662 235.516 153.048C232.012 151.267 227.888 151.267 224.384 153.048C221.186 154.705 218.603 159.064 213.498 167.843L178.747 227.393L178.628 227.598L178.626 227.6C173.54 236.364 170.998 240.743 171.182 244.337C171.428 248.267 173.457 251.887 176.778 254.037C179.792 256 184.959 256 195.23 256Z" fill="black"/>
</svg>

<svg xmlns="http://www.w3.org/2000/svg" fill="none" viewBox="0 0 289 256"><path fill="#000" d="M72.525 256h-48.59c-10.21 0-15.253 0-18.328-1.963-3.322-2.15-5.352-5.71-5.598-9.64-.184-3.621 2.338-8.042 7.381-16.883L127.364 16.438c5.106-8.964 7.689-13.445 10.948-15.103a12.4 12.4 0 0 1 11.195 0c3.259 1.658 5.843 6.14 10.948 15.103l24.79 43.193c5.513 9.616 8.309 14.492 9.53 19.61a36.4 36.4 0 0 1 0 17.067c-1.23 5.156-3.998 10.068-9.595 19.829L122.161 227.33l-.163.285-.004.006c-5.548 9.691-8.36 14.603-12.257 18.31a36.7 36.7 0 0 1-14.947 8.658C89.685 256 83.965 256 72.525 256M195.23 256h69.624c10.271 0 15.439 0 18.516-2.023 3.32-2.15 5.411-5.774 5.597-9.7.177-3.504-2.29-7.753-7.123-16.079l-.001-.001-.436-.749-.067-.117-34.875-59.549-.397-.671-.007-.012c-4.896-8.263-7.369-12.437-10.545-14.051a12.26 12.26 0 0 0-11.132 0c-3.198 1.657-5.781 6.016-10.886 14.795l-34.751 59.55-.119.205-.002.002c-5.086 8.764-7.628 13.143-7.444 16.737.246 3.93 2.275 7.55 5.596 9.7C179.792 256 184.959 256 195.23 256"/></svg>
